assets/symbols/mulberry/week.svg

<svg height="850.394" viewBox="0 0 850.394 850.394" width="850.394" xmlns="http://www.w3.org/2000/svg"><g fill="#fff5b4"><path d="m141.76 445.44c14.88 0 26.94-12.061 26.94-26.931 0-14.9-12.06-26.96-26.94-26.96s-26.94 12.06-26.94 26.96c0 14.871 12.06 26.931 26.94 26.931zm71.08-98.77v217.16h-141.3v-217.16zm-37.47 199.75v-69.25h-20.99l-12.36 47.23-12.53-47.23h-20.94v69.25h12.94l.03-54.51 13.69 54.51h13.48l13.71-54.51.03 54.51z"/><path d="m283.62 445.44c14.88 0 26.94-12.061 26.94-26.931 0-14.9-12.06-26.96-26.94-26.96s-26.94 12.06-26.94 26.96c0 14.871 12.06 26.931 26.94 26.931zm70.51-98.77v217.16h-141.29v-217.16zm-42.69 142.18v-11.68h-55.07v11.68h20.57v57.57h14v-57.57zm113.47-43.41c14.88 0 26.939-12.061 26.939-26.931 0-14.9-12.06-26.96-26.939-26.96-14.88 0-26.94 12.06-26.94 26.96 0 14.871 12.06 26.931 26.94 26.931zm70.69-98.77v217.16h-141.47v-217.16zm-42.99 199.75 16.77-69.25h-14.08l-10.63 48.37-12.16-48.37h-16.66l-12.62 47.57-10.39-47.57h-14.39l16.46 69.25h15.26l13.75-51.78 13.78 51.78zm113.18-100.96c14.87 0 26.93-12.07 26.93-26.94 0-14.9-12.06-26.96-26.93-26.96-14.89 0-26.95 12.06-26.95 26.96 0 14.87 12.06 26.94 26.95 26.94zm71.11-98.79v217.16h-141.3v-217.16zm-18.41 199.75v-29.44c0-4.5-.23-7.83-.681-9.971-.46-2.14-1.31-4.09-2.56-5.859-1.25-1.761-3.1-3.21-5.57-4.341-2.46-1.14-5.22-1.71-8.29-1.71-5.97 0-11.1 2.53-15.399 7.591v-25.52h-13.25v69.25h13.25v-25.12c0-4.22.41-7.41 1.22-9.56.8-2.16 2.08-3.771 3.82-4.84 1.739-1.07 3.72-1.61 5.939-1.61 1.94 0 3.54.42 4.83 1.25 1.28.84 2.181 1.96 2.681 3.38.51 1.42.76 4.75.76 10.01v26.49zm-54.54-57.57v-11.68h-55.06v11.68h20.561v57.57h14v-57.57z"/><path d="m707.41 445.59c14.88 0 26.93-12.07 26.93-26.94 0-14.9-12.05-26.95-26.93-26.95-14.891 0-26.94 12.05-26.94 26.95 0 14.87 12.05 26.94 26.94 26.94zm70.79-98.92v217.16h-141.3v-217.16zm-45.87 142.18v-11.68h-47.56v69.25h14v-29.44h29v-11.69h-29v-16.44z"/></g><path d="m168.7 418.51c0 14.87-12.06 26.931-26.94 26.931s-26.94-12.061-26.94-26.931c0-14.9 12.06-26.96 26.94-26.96s26.94 12.06 26.94 26.96zm141.86 0c0 14.87-12.06 26.931-26.94 26.931s-26.94-12.061-26.94-26.931c0-14.9 12.06-26.96 26.94-26.96s26.94 12.06 26.94 26.96zm141.29 0c0 14.87-12.06 26.931-26.939 26.931-14.88 0-26.94-12.061-26.94-26.931 0-14.9 12.06-26.96 26.94-26.96 14.879 0 26.939 12.06 26.939 26.96zm140.87.01c0 14.87-12.06 26.94-26.93 26.94-14.89 0-26.95-12.07-26.95-26.94 0-14.9 12.061-26.96 26.95-26.96 14.87 0 26.93 12.06 26.93 26.96zm141.62.13c0 14.87-12.05 26.94-26.93 26.94-14.891 0-26.94-12.07-26.94-26.94 0-14.9 12.05-26.95 26.94-26.95 14.88 0 26.93 12.05 26.93 26.95z" fill="#fbed24"/><path d="m732.33 477.17v11.68h-33.56v16.44h29v11.69h-29v29.44h-14v-69.25zm-113.84 39.81v29.439h-13.25v-26.49c0-5.26-.25-8.59-.76-10.01-.5-1.42-1.4-2.54-2.681-3.38-1.29-.83-2.89-1.25-4.83-1.25-2.22 0-4.2.54-5.939 1.61-1.74 1.069-3.021 2.68-3.82 4.84-.81 2.149-1.22 5.34-1.22 9.56v25.12h-13.25v-69.25h13.25v25.521c4.3-5.061 9.43-7.591 15.399-7.591 3.07 0 5.83.57 8.29 1.71 2.471 1.131 4.32 2.58 5.57 4.341 1.25 1.77 2.1 3.72 2.56 5.859.451 2.141.681 5.471.681 9.971zm-54.54-39.81v11.68h-20.5v57.57h-14v-57.57h-20.56v-11.68zm-94.57 0-16.77 69.25h-14.91l-13.78-51.78-13.75 51.78h-15.26l-16.46-69.25h14.39l10.39 47.57 12.62-47.57h16.66l12.16 48.37 10.63-48.37zm-157.94 0v11.68h-20.5v57.57h-14v-57.57h-20.57v-11.68zm-136.07 0v69.25h-12.94l-.03-54.51-13.71 54.51h-13.48l-13.69-54.51-.03 54.51h-12.94v-69.25h20.94l12.53 47.23 12.36-47.23z" fill="#231f20"/><g fill="none" stroke="#231f20"><path d="m168.7 418.51c0 14.87-12.06 26.931-26.94 26.931s-26.94-12.061-26.94-26.931c0-14.9 12.06-26.96 26.94-26.96s26.94 12.06 26.94 26.96zm-27.15-31.86v-20.5m-16.35 24.48-11.32-17.07m-.42 29.68-18.57-8.68m63.59-4.25 11.32-17.08m.42 29.68 18.57-8.68m-30.99 52.35 11.33 17.08m.41-29.67 18.58 8.67m-63.6 4.26-11.32 17.08m-.41-29.68-18.57 8.68m15.43-24.19h-20.5m104.91 0h-20.51m-32 51.61v-20.5m169.01-31.41c0 14.87-12.06 26.931-26.94 26.931s-26.94-12.061-26.94-26.931c0-14.9 12.06-26.96 26.94-26.96s26.94 12.06 26.94 26.96zm-27.15-31.86v-20.5m-16.35 24.48-11.32-17.07m-.42 29.68-18.57-8.68m63.59-4.25 11.32-17.08m.42 29.68 18.57-8.68m-30.99 52.35 11.33 17.08m.42-29.67 18.57 8.67m-63.6 4.26-11.32 17.08m-.41-29.68-18.57 8.68m15.43-24.19h-20.5m104.91 0h-20.5m-32.01 51.61v-20.5m168.44-31.41c0 14.87-12.06 26.931-26.939 26.931-14.88 0-26.94-12.061-26.94-26.931 0-14.9 12.06-26.96 26.94-26.96 14.879 0 26.939 12.06 26.939 26.96zm-27.14-31.86v-20.5m-16.36 24.48-11.32-17.07m-.42 29.68-18.56-8.68m63.58-4.25 11.33-17.08m.41 29.68 18.57-8.68m-30.99 52.35 11.33 17.08m.42-29.67 18.57 8.67m-63.59 4.26-11.32 17.08m-.42-29.68-18.57 8.68m15.43-24.19h-20.5m104.91 0h-20.5m-32 51.61v-20.5m168.01-31.4c0 14.87-12.06 26.94-26.93 26.94-14.89 0-26.95-12.07-26.95-26.94 0-14.9 12.061-26.96 26.95-26.96 14.87 0 26.93 12.06 26.93 26.96zm-27.14-31.86v-20.5m-16.35 24.49-11.33-17.08m-.41 29.68-18.57-8.68m63.58-4.24 11.33-17.09m.41 29.68 18.57-8.68m-30.98 52.35 11.32 17.08m.42-29.67 18.57 8.68m-63.59 4.25-11.32 17.08m-.42-29.68-18.57 8.68m15.44-24.18h-20.51m104.91 0h-20.5m-32 51.6v-20.5m168.76-31.28c0 14.87-12.05 26.94-26.93 26.94-14.891 0-26.94-12.07-26.94-26.94 0-14.9 12.05-26.95 26.94-26.95 14.88 0 26.93 12.05 26.93 26.95zm-27.14-31.86v-20.5m-16.35 24.49-11.32-17.08m-.42 29.68-18.57-8.68m63.59-4.24 11.32-17.09m.42 29.68 18.57-8.68m-30.99 52.35 11.33 17.09m.41-29.68 18.57 8.68m-63.58 4.25-11.33 17.08m-.41-29.68-18.57 8.68m15.43-24.18h-20.5m104.9 0h-20.5m-32 51.61v-20.51" stroke-width="6.682"/><path d="m212.84 563.83h-141.3v-217.16h706.66v217.16h-424.07zm424.06-217.16v217.16m-141.3-217.16v217.16m-141.47-217.16v217.16m-141.29-217.16v217.16" stroke-width="20.045"/></g><path d="m0 0h850.394v850.394h-850.394z" fill="none"/></svg>

<svg xmlns="http://www.w3.org/2000/svg" width="850.394" height="850.394" viewBox="0 0 850.394 850.394" overflow="visible"><path d="M141.76 445.44c14.88 0 26.94-12.061 26.94-26.931 0-14.9-12.06-26.96-26.94-26.96s-26.94 12.06-26.94 26.96c0 14.871 12.06 26.931 26.94 26.931zm71.08-98.77v217.16H71.54V346.67h141.3zm-37.47 199.75v-69.25h-20.99l-12.36 47.23-12.53-47.23h-20.94v69.25h12.94l.03-54.51 13.69 54.51h13.48l13.71-54.51.03 54.51h12.94z" fill="#fff5b4"/><path d="M283.62 445.44c14.88 0 26.94-12.061 26.94-26.931 0-14.9-12.06-26.96-26.94-26.96s-26.94 12.06-26.94 26.96c0 14.871 12.06 26.931 26.94 26.931zm70.51-98.77v217.16H212.84V346.67h141.29zm-42.69 142.18v-11.68h-55.07v11.68h20.57v57.57h14v-57.57h20.5zM424.91 445.44c14.88 0 26.939-12.061 26.939-26.931 0-14.9-12.06-26.96-26.939-26.96-14.88 0-26.94 12.06-26.94 26.96 0 14.871 12.06 26.931 26.94 26.931zm70.69-98.77v217.16H354.13V346.67H495.6zm-42.99 199.75l16.77-69.25H455.3l-10.63 48.37-12.16-48.37h-16.66l-12.62 47.57-10.39-47.57h-14.39l16.46 69.25h15.26l13.75-51.78 13.78 51.78h14.91zM565.79 445.46c14.87 0 26.93-12.07 26.93-26.94 0-14.9-12.06-26.96-26.93-26.96-14.89 0-26.95 12.06-26.95 26.96 0 14.87 12.06 26.94 26.95 26.94zm71.11-98.79v217.16H495.6V346.67h141.3zm-18.41 199.75v-29.44c0-4.5-.23-7.83-.681-9.971-.46-2.14-1.31-4.09-2.56-5.859-1.25-1.761-3.1-3.21-5.57-4.341-2.46-1.14-5.22-1.71-8.29-1.71-5.97 0-11.1 2.53-15.399 7.591v-25.52h-13.25v69.25h13.25V521.3c0-4.22.41-7.41 1.22-9.56.8-2.16 2.08-3.771 3.82-4.84 1.739-1.07 3.72-1.61 5.939-1.61 1.94 0 3.54.42 4.83 1.25 1.28.84 2.181 1.96 2.681 3.38.51 1.42.76 4.75.76 10.01v26.49h13.25zm-54.54-57.57v-11.68h-55.06v11.68h20.561v57.57h14v-57.57h20.499z" fill="#fff5b4"/><path d="M707.41 445.59c14.88 0 26.93-12.07 26.93-26.94 0-14.9-12.05-26.95-26.93-26.95-14.891 0-26.94 12.05-26.94 26.95 0 14.87 12.05 26.94 26.94 26.94zm70.79-98.92v217.16H636.9V346.67h141.3zm-45.87 142.18v-11.68h-47.56v69.25h14v-29.44h29v-11.69h-29v-16.44h33.56z" fill="#fff5b4"/><path d="M168.7 418.51c0 14.87-12.06 26.931-26.94 26.931s-26.94-12.061-26.94-26.931c0-14.9 12.06-26.96 26.94-26.96s26.94 12.06 26.94 26.96zM310.56 418.51c0 14.87-12.06 26.931-26.94 26.931s-26.94-12.061-26.94-26.931c0-14.9 12.06-26.96 26.94-26.96s26.94 12.06 26.94 26.96zM451.85 418.51c0 14.87-12.06 26.931-26.939 26.931-14.88 0-26.94-12.061-26.94-26.931 0-14.9 12.06-26.96 26.94-26.96 14.879 0 26.939 12.06 26.939 26.96zM592.72 418.52c0 14.87-12.06 26.94-26.93 26.94-14.89 0-26.95-12.07-26.95-26.94 0-14.9 12.061-26.96 26.95-26.96 14.87 0 26.93 12.06 26.93 26.96zM734.34 418.65c0 14.87-12.05 26.94-26.93 26.94-14.891 0-26.94-12.07-26.94-26.94 0-14.9 12.05-26.95 26.94-26.95 14.88 0 26.93 12.05 26.93 26.95z" fill="#fbed24"/><path fill="#231f20" d="M732.33 477.17v11.68h-33.56v16.44h29v11.69h-29v29.44h-14v-69.25zM618.49 516.98v29.439h-13.25v-26.49c0-5.26-.25-8.59-.76-10.01-.5-1.42-1.4-2.54-2.681-3.38-1.29-.83-2.89-1.25-4.83-1.25-2.22 0-4.2.54-5.939 1.61-1.74 1.069-3.021 2.68-3.82 4.84-.81 2.149-1.22 5.34-1.22 9.56v25.12h-13.25v-69.25h13.25v25.521c4.3-5.061 9.43-7.591 15.399-7.591 3.07 0 5.83.57 8.29 1.71 2.471 1.131 4.32 2.58 5.57 4.341 1.25 1.77 2.1 3.72 2.56 5.859.451 2.141.681 5.471.681 9.971zM563.95 477.17v11.68h-20.5v57.57h-14v-57.57h-20.56v-11.68zM469.38 477.17l-16.77 69.25H437.7l-13.78-51.78-13.75 51.78h-15.26l-16.46-69.25h14.39l10.39 47.57 12.62-47.57h16.66l12.16 48.37 10.63-48.37zM311.44 477.17v11.68h-20.5v57.57h-14v-57.57h-20.57v-11.68zM175.37 477.17v69.25h-12.94l-.03-54.51-13.71 54.51h-13.48l-13.69-54.51-.03 54.51h-12.94v-69.25h20.94l12.53 47.23 12.36-47.23z"/><g fill="none" stroke="#231f20"><path d="M168.7 418.51c0 14.87-12.06 26.931-26.94 26.931s-26.94-12.061-26.94-26.931c0-14.9 12.06-26.96 26.94-26.96s26.94 12.06 26.94 26.96zM141.55 386.65v-20.5M125.2 390.63l-11.32-17.07M113.46 403.24l-18.57-8.68M158.48 390.31l11.32-17.08M170.22 402.91l18.57-8.68M157.8 446.58l11.33 17.08M169.54 433.99l18.58 8.67M124.52 446.92L113.2 464M112.79 434.32L94.22 443M109.65 418.81h-20.5M194.06 418.81h-20.51M141.55 470.42v-20.5M310.56 418.51c0 14.87-12.06 26.931-26.94 26.931s-26.94-12.061-26.94-26.931c0-14.9 12.06-26.96 26.94-26.96s26.94 12.06 26.94 26.96zM283.41 386.65v-20.5M267.06 390.63l-11.32-17.07M255.32 403.24l-18.57-8.68M300.34 390.31l11.32-17.08M312.08 402.91l18.57-8.68M299.66 446.58l11.33 17.08M311.41 433.99l18.57 8.67M266.38 446.92L255.06 464M254.65 434.32L236.08 443M251.51 418.81h-20.5M335.92 418.81h-20.5M283.41 470.42v-20.5M451.85 418.51c0 14.87-12.06 26.931-26.939 26.931-14.88 0-26.94-12.061-26.94-26.931 0-14.9 12.06-26.96 26.94-26.96 14.879 0 26.939 12.06 26.939 26.96zM424.71 386.65v-20.5M408.35 390.63l-11.32-17.07M396.61 403.24l-18.56-8.68M441.63 390.31l11.33-17.08M453.37 402.91l18.57-8.68M440.95 446.58l11.33 17.08M452.7 433.99l18.57 8.67M407.68 446.92L396.36 464M395.94 434.32L377.37 443M392.8 418.81h-20.5M477.21 418.81h-20.5M424.71 470.42v-20.5M592.72 418.52c0 14.87-12.06 26.94-26.93 26.94-14.89 0-26.95-12.07-26.95-26.94 0-14.9 12.061-26.96 26.95-26.96 14.87 0 26.93 12.06 26.93 26.96zM565.58 386.66v-20.5M549.23 390.65l-11.33-17.08M537.49 403.25l-18.57-8.68M582.5 390.33l11.33-17.09M594.24 402.92l18.57-8.68M581.83 446.59l11.32 17.08M593.57 434l18.57 8.68M548.55 446.93l-11.32 17.08M536.81 434.33l-18.57 8.68M533.68 418.83h-20.51M618.08 418.83h-20.5M565.58 470.43v-20.5M734.34 418.65c0 14.87-12.05 26.94-26.93 26.94-14.891 0-26.94-12.07-26.94-26.94 0-14.9 12.05-26.95 26.94-26.95 14.88 0 26.93 12.05 26.93 26.95zM707.2 386.79v-20.5M690.85 390.78l-11.32-17.08M679.11 403.38l-18.57-8.68M724.13 390.46l11.32-17.09M735.87 403.05l18.57-8.68M723.45 446.72l11.33 17.09M735.19 434.13l18.57 8.68M690.18 447.06l-11.33 17.08M678.44 434.46l-18.57 8.68M675.3 418.96h-20.5M759.7 418.96h-20.5M707.2 470.57v-20.51" stroke-width="6.682"/><path stroke-width="20.045" d="M212.84 563.83H71.54V346.67H778.2v217.16H354.13zM636.9 346.67v217.16M495.6 346.67v217.16M354.13 346.67v217.16M212.84 346.67v217.16"/></g><path fill="none" d="M0 0h850.394v850.394H0z"/></svg>
